X: 2338
M: C
L: 1/8
K: Bb
uF2 |\
(vFB)BB (uBd)fg | fdbf gfdf |\
(gf)dB (cB)GA | BdcB G2F2 |\
(FB)BB (Bd)fg | gfbf gfdf |\
(gf)dB (cB)GB | AecA B2 :|
|: (3(FGA) |\
e2ed c2cB | AcBG FDEC |\


